X: 1
T: Lexington
P: piffero primo a0498
O: cfd bk3
%R: 2/4
F: http://ancients.sudburymuster.org/mus/sng/pdf/lexingtonC0.pdf
Z: 2020 John Chambers <jc:trillian.mit.edu>
M: 2/4
L: 1/16
K: G
D2 |\
GFGB A2D2 | GFGB e2d2 | gfge dBGB | AGAB E2D2 |\
GFGB A2D2 | GFGB e2d2 | gfgd efgd | B2G2 G2 :|
|: d2 |\
gfge dBGB | gfgd e2d2 | gfge dBGB | ABAG E2D2 |\
GFGB AGED | GFGB e2d2 | gfgd efgd | B2G2 G2 :|
